X: 23974
T: Lock The Door
R: slide
M: 12/8
K: Edorian
|:~E3 BAG ~F3 AGF|~E3 BAG AGF E2D|
~E3 BAG ~F3 AFA|1 B/c/dB AGF ~E3 E2D:|2 B/c/dB AGF ~E3 E2A||
|:B2c d2e d2B AFA|~B2c d2e fdB fdB|
B2c d2e d2B AFA|1 B/c/dB AGF ~E3 E2A:|2 B/c/dB AGF ~E3 E2D||
|:~E2B ~E2B ~E2B BAB|DEB ~E2B AGF E2D|
~E2B ~E2B ~E2B BAB|dcB AGF ~E3 E2D:|

